svg/mysql.svg

<?xml version="1.0" encoding="UTF-8"?>
<svg xmlns="http://www.w3.org/2000/svg" xmlns:xlink="http://www.w3.org/1999/xlink" width="32" height="32" viewBox="0 0 32 32">
<path fill-rule="evenodd" fill="rgb(0%, 40.392157%, 54.901963%)" fill-opacity="1" d="M 29.476562 24.925781 C 27.734375 24.878906 26.386719 25.054688 25.253906 25.53125 C 24.925781 25.664062 24.40625 25.664062 24.363281 26.074219 C 24.535156 26.246094 24.558594 26.527344 24.710938 26.765625 C 24.96875 27.199219 25.429688 27.78125 25.839844 28.085938 L 27.234375 29.078125 C 28.082031 29.597656 29.039062 29.902344 29.867188 30.421875 C 30.347656 30.722656 30.824219 31.113281 31.304688 31.4375 C 31.546875 31.609375 31.695312 31.890625 32 32 L 32 31.933594 C 31.847656 31.738281 31.804688 31.457031 31.652344 31.242188 L 31 30.613281 C 30.359375 29.773438 29.597656 29.039062 28.734375 28.429688 C 28.039062 27.953125 26.515625 27.304688 26.234375 26.507812 L 26.191406 26.457031 C 26.667969 26.410156 27.234375 26.242188 27.691406 26.109375 C 28.433594 25.917969 29.105469 25.960938 29.867188 25.765625 L 30.914062 25.460938 L 30.914062 25.269531 C 30.519531 24.878906 30.238281 24.359375 29.824219 23.992188 C 28.714844 23.042969 27.496094 22.109375 26.234375 21.332031 C 25.558594 20.898438 24.6875 20.617188 23.96875 20.25 C 23.707031 20.121094 23.273438 20.054688 23.121094 19.839844 C 22.726562 19.363281 22.511719 18.738281 22.226562 18.175781 L 20.445312 14.410156 C 20.050781 13.566406 19.8125 12.722656 19.335938 11.945312 C 17.09375 8.269531 14.65625 6.042969 10.910156 3.855469 C 10.105469 3.402344 9.148438 3.207031 8.128906 2.96875 L 6.5 2.882812 C 6.148438 2.730469 5.800781 2.320312 5.496094 2.125 C 4.257812 1.347656 1.058594 -0.339844 0.144531 1.882812 C -0.445312 3.289062 1.011719 4.671875 1.507812 5.386719 C 1.878906 5.882812 2.355469 6.445312 2.621094 7.007812 C 2.765625 7.375 2.8125 7.765625 2.96875 8.15625 C 3.316406 9.105469 3.640625 10.167969 4.097656 11.054688 C 4.34375 11.507812 4.597656 11.984375 4.902344 12.394531 C 5.078125 12.636719 5.382812 12.742188 5.449219 13.128906 C 5.140625 13.5625 5.121094 14.210938 4.949219 14.753906 C 4.164062 17.195312 4.46875 20.226562 5.578125 22.023438 C 5.925781 22.566406 6.75 23.753906 7.863281 23.300781 C 8.84375 22.910156 8.625 21.679688 8.90625 20.597656 C 8.972656 20.335938 8.929688 20.164062 9.058594 19.992188 L 9.058594 20.039062 L 9.953125 21.835938 C 10.628906 22.894531 11.804688 23.996094 12.78125 24.734375 C 13.304688 25.121094 13.71875 25.792969 14.371094 26.03125 L 14.371094 25.964844 L 14.328125 25.964844 C 14.195312 25.773438 14 25.683594 13.824219 25.53125 C 13.433594 25.144531 13 24.667969 12.695312 24.234375 C 11.78125 23.023438 10.976562 21.683594 10.257812 20.300781 C 9.910156 19.628906 9.605469 18.894531 9.320312 18.222656 C 9.191406 17.964844 9.191406 17.574219 8.972656 17.445312 C 8.644531 17.917969 8.167969 18.332031 7.929688 18.914062 C 7.515625 19.84375 7.472656 20.992188 7.320312 22.179688 C 7.230469 22.203125 7.269531 22.179688 7.230469 22.230469 C 6.535156 22.058594 6.296875 21.34375 6.035156 20.738281 C 5.382812 19.203125 5.273438 16.734375 5.839844 14.960938 C 5.992188 14.507812 6.644531 13.082031 6.382812 12.648438 C 6.25 12.238281 5.816406 12 5.578125 11.675781 C 5.273438 11.238281 5.011719 10.773438 4.792969 10.289062 C 4.273438 9.078125 4.011719 7.738281 3.445312 6.527344 C 3.183594 5.964844 2.726562 5.378906 2.355469 4.863281 C 1.941406 4.277344 1.488281 3.867188 1.160156 3.175781 C 1.050781 2.933594 0.898438 2.546875 1.074219 2.289062 C 1.117188 2.113281 1.203125 2.046875 1.378906 2.007812 C 1.660156 1.765625 2.464844 2.070312 2.75 2.199219 C 3.554688 2.527344 4.226562 2.828125 4.902344 3.28125 C 5.207031 3.496094 5.535156 3.910156 5.925781 4.015625 L 6.382812 4.015625 C 7.082031 4.167969 7.863281 4.066406 8.515625 4.261719 C 9.667969 4.628906 10.714844 5.167969 11.648438 5.753906 C 14.527344 7.574219 16.871094 10.128906 18.441406 13.152344 C 18.699219 13.648438 18.808594 14.101562 19.050781 14.621094 C 19.507812 15.679688 20.074219 16.761719 20.527344 17.800781 C 20.988281 18.816406 21.421875 19.855469 22.074219 20.699219 C 22.402344 21.15625 23.707031 21.390625 24.292969 21.628906 C 24.730469 21.824219 25.402344 22 25.796875 22.234375 C 26.535156 22.691406 27.277344 23.210938 27.972656 23.707031 C 28.320312 23.964844 29.410156 24.507812 29.472656 24.9375 Z M 7.28125 6.132812 C 6.980469 6.128906 6.679688 6.164062 6.390625 6.238281 L 6.390625 6.289062 L 6.433594 6.289062 C 6.605469 6.632812 6.910156 6.871094 7.128906 7.175781 L 7.628906 8.214844 L 7.671875 8.164062 C 7.976562 7.949219 8.128906 7.601562 8.128906 7.082031 C 8 6.933594 7.980469 6.78125 7.871094 6.628906 C 7.738281 6.414062 7.457031 6.304688 7.28125 6.132812 M 7.28125 6.132812 "/>
</svg>

<svg role="img" viewBox="0 0 32 32" xmlns="http://www.w3.org/2000/svg"><path d="M29.477 24.926c-1.743-.047-3.09.129-4.223.605-.328.133-.848.133-.89.543.171.172.195.453.347.692.258.433.719 1.015 1.129 1.32l1.394.992c.848.52 1.805.824 2.633 1.344.48.3.957.691 1.438 1.015.242.172.39.454.695.563v-.066c-.152-.196-.195-.477-.348-.692L31 30.613a10.4 10.4 0 0 0-2.266-2.183c-.695-.477-2.218-1.125-2.5-1.922l-.043-.051c.477-.047 1.043-.215 1.5-.348.743-.191 1.414-.148 2.176-.343l1.047-.305v-.191c-.394-.391-.676-.91-1.09-1.278-1.11-.949-2.328-1.883-3.59-2.66-.675-.434-1.547-.715-2.265-1.082-.262-.129-.696-.195-.848-.41-.394-.477-.61-1.102-.894-1.664l-1.782-3.766c-.394-.844-.633-1.687-1.11-2.465-2.241-3.675-4.679-5.902-8.425-8.09-.805-.453-1.762-.648-2.781-.886L6.5 2.883c-.352-.153-.7-.563-1.004-.758C4.258 1.348 1.06-.34.145 1.883c-.59 1.406.867 2.789 1.363 3.504.37.496.847 1.058 1.113 1.62.145.368.192.759.348 1.15.347.948.672 2.011 1.129 2.898.246.453.5.93.804 1.34.176.242.48.347.547.734-.308.434-.328 1.082-.5 1.625-.785 2.441-.48 5.473.63 7.27.347.542 1.171 1.73 2.284 1.277.98-.39.762-1.621 1.043-2.703.067-.262.024-.434.153-.606v.047l.894 1.797c.676 1.059 1.852 2.16 2.828 2.898.524.387.938 1.059 1.59 1.297v-.066h-.043c-.133-.192-.328-.281-.504-.434-.39-.386-.824-.863-1.129-1.297-.914-1.21-1.718-2.55-2.437-3.933-.348-.672-.653-1.406-.938-2.078-.129-.258-.129-.649-.347-.778-.328.473-.805.887-1.043 1.47-.414.929-.457 2.077-.61 3.265-.09.023-.05 0-.09.05-.695-.171-.933-.886-1.195-1.492-.652-1.535-.762-4.004-.195-5.777.152-.453.805-1.879.543-2.313-.133-.41-.567-.648-.805-.972a8.7 8.7 0 0 1-.785-1.387c-.52-1.21-.781-2.55-1.348-3.762-.261-.562-.718-1.148-1.09-1.664-.414-.586-.867-.996-1.195-1.687-.11-.242-.262-.63-.086-.887.043-.176.13-.242.305-.281.281-.242 1.086.062 1.371.191.805.328 1.477.63 2.152 1.082.305.215.633.63 1.024.735h.457c.699.152 1.48.05 2.133.246 1.152.367 2.199.906 3.132 1.492a19.25 19.25 0 0 1 6.793 7.398c.258.496.368.95.61 1.47.457 1.058 1.023 2.14 1.476 3.179.461 1.015.895 2.054 1.547 2.898.328.457 1.633.692 2.219.93.437.195 1.11.371 1.504.605.738.457 1.48.977 2.176 1.473.347.258 1.437.8 1.5 1.23ZM7.28 6.133a3.4 3.4 0 0 0-.89.105v.051h.043c.171.344.476.582.695.887l.5 1.039.043-.05c.305-.216.457-.563.457-1.083-.129-.148-.149-.3-.258-.453-.133-.215-.414-.324-.59-.496m0 0" fill="rgb(0%, 40.392157%, 54.901963%)" fill-rule="evenodd"/></svg>
